X:1
T:As a Volunteer
T:Charles Hutchinson Gabriel
T:As a Volunteer
T:Public Domain
T:Public Domain
T:Public Domain
C:Charles Hutchinson Gabriel
Z:Public Domain
%%score ( 1 2 ) ( 3 4 )
L:1/8
M:4/4
K:C
V:1 treble 
V:2 treble 
V:3 bass 
V:4 bass 
V:1
 G2 | [Ec]3 [Ec] [Ec]2 [Ec]2 | [Ec]2 G2 E2 F2 | (G2 D2) (C2 F2) | [EG]6 z2 | %5
w: 1.~A|for loy- al sol-|diers Comes to one|diers * for *|flict,|
w: 2.~Yes,|sus calls for sol-|diers Who are filled|diers * who *|Him|
w: 3.~He|you, for He loves|you With a heart|Whose * heart *|en,|
w: 4.~And|the war is o-|ver, And the vic-|the * true *|ful|
 [FA]2 [FA]2 [FA]2 [FA]2 | [Gc]2 [Gc]6 | [^Fd]2 [Gd]2 [Ad]2 [Fd]2 | [Gd]6 z2 | %9
w: Will you heed the|call? Will|you an- swer quick-|ly,|
w: Ev- ’ry day and|hour; He|will not for- sake|you,|
w: Brok- en for man-|kind; Now,|just now, He calls|you,|
w: Gath- er one by|one, He|will crown with glo-|ry|
 [Ge]3 [Ge] [Ge]2 [Ge]2 | [Ge]2 [Ec]6 | [FA]2 [FA]2 [FA]2 [FA]2 | [Ac]6 z2 | %13
w: With a read- y|cheer, Will|you be en- list-|ed|
w: He is ev- er|near; Will|you be en- list-|ed|
w: Calls in ac- cents|clear, Will|you be en- list-|ed|
w: All who there ap-|pear; Will|you be en- list-|ed|
 [^Fd]3 [Gd] [Ad]2 [Fd]2 | [Fd]2 [FB]2 [FA]2 [FG]2 | [Ec]4 [Fc]4 | [Ec]6 ||"^Refrain" [EG]2 | %18
w: As a vol- un-|teer? * * *||||
w: As a vol- un-|teer? A vol- un-|teer for|Je-|sus,|
w: As a vol- un-|teer? * * *||||
w: As a vol- un-|teer? * * *||||
 [Ge]3 [Ge] [Ge]2 [Ge]2 | [Ge]2 [Ec]4 [_Bc]2 | [Ac]4 [FA]4 | [EG]6 z2 | [CE]2 [CE]2 [CE]2 [DF]2 | %23
w: |||||
w: A sol- dier true!|Oth- ers have|en- list-|ed,|Why not you? Je-|
w: |||||
w: |||||
 [EG]2 [Gc]6 | [^FA]4 (G2 F2) | [Gd]6 z2 | [Ge]3 [Ge] [Ge]2 [Ge]2 | [Ge]2 [Ec]6 | %28
w: |||||
w: sus is|the Cap- *|We|will nev- er fear,|Will you|
w: |||||
w: |||||
 [FA]2 [FA]2 [FA]2 [FA]2 | [Ac]6 z2 | [^Fd]3 [Gd] [Ad]2 [Fd]2 | [Fd]2 [FB]2 [FA]2 [FG]2 | %32
w: ||||
w: be en- list- ed|As|a vol- un- teer?||
w: ||||
w: ||||
 [Ec]4 [Fc]4 | [Ec]6 |] %34
w: ||
w: ||
w: ||
w: ||
V:2
 G2 | x8 | x2 G2 E2 F2 | G4 G4 | x8 | x8 | x8 | x8 | x8 | x8 | x8 | x8 | x8 | x8 | x8 | x8 | x6 || %17
w: call||and all; Sol-|the con-||||||||||||||
w: Je-||with pow’r, Sol-|will serve||||||||||||||
w: calls||most kind, He|was brok-||||||||||||||
w: when||t’ry won, When|and faith-||||||||||||||
 x2 | x8 | x8 | x8 | x8 | x8 | x8 | x4 d4 | x8 | x8 | x8 | x8 | x8 | x8 | x8 | x8 | x6 |] %34
w: |||||||||||||||||
w: |||||||tain,||||||||||
w: |||||||||||||||||
w: |||||||||||||||||
V:3
 G,2 | [C,G,]3 [C,G,] [C,G,]2 [C,G,]2 | [C,G,]2 G,2 E,2 F,2 | G,2 [F,B,]2 [E,G,]2 [D,B,]2 | %4
w: ~|~ ~ ~ ~|~ ~ ~ ~|~ ~ ~ ~|
 (z2 C,2 D,2 E,2) | [F,C]2 [F,C]2 [F,C]2 [F,C]2 | [E,C]2 z2 G,2 C2 | [D,C]2 [E,C]2 [^F,C]2 [D,C]2 | %8
w: |* ~ ~ ~|~ ~ ~|* ~ ~ ~|
 (z2 F,2 E,2 D,2) | [C,C]3 [C,C] [C,C]2 [C,C]2 | [C,C]2 (z2 D,2 E,2) | %11
w: |* ~ ~ ~|~ * *|
 [F,C]2 [F,C]2 [F,C]2 [F,C]2 | (z2 G,2 A,2 B,2) | [D,C]3 [E,C] [^F,C]2 [D,C]2 | %14
w: * ~ ~ ~||* ~ ~ ~|
 [G,B,]2 [G,D]2 [G,C]2 [G,B,]2 | [C,C]4 [C,A,]4 | [C,G,]6 || [C,C]2 | [C,C]3 [C,C] [C,C]2 [C,C]2 | %19
w: ~ ~ ~ ~|~ ~|~|~|~ ~ ~ ~|
 [C,C]2 z2 D,2 [E,C]2 | F,2 G,2 (A,2 B,2) | (z2 A,2 G,2 E,2) | [C,G,]2 [C,G,]2 [C,G,]2 [C,G,]2 | %23
w: ~ ~ ~|* * ~ *||* ~ ~ ~|
 [C,C]2 [C,E]6 | ([D,D]2 [C,C]2) ([B,,B,D]2 [A,,A,C]2) | ([G,,G,]2 F,2 E,2 D,2) | %26
w: ~ ~|~ * ~ *|O * * *|
 [C,C]3 [C,C] [C,C]2 [C,C]2 | [C,C]2 (z2 D,2 E,2) | [F,C]2 [F,C]2 [F,C]2 [F,C]2 | (z2 G,2 A,2 C2) | %30
w: not? * * *||||
 [D,C]3 [E,C] [^F,C]2 [D,C]2 | [G,B,]2 [G,D]2 [G,C]2 [G,B,]2 | [C,C]4 [C,A,]4 | [C,G,]6 |] %34
w: ||||
V:4
 G,2 | x8 | x2 G,2 E,2 F,2 | G,2 x6 | [C,C]6 x2 | x8 | x2 [E,C]6 | x8 | [G,B,]6 x2 | x8 | %10
w: ~||~ ~ ~|~|~||~||~||
 x2 [C,C]6 | x8 | [F,C]6 x2 | x8 | x8 | x8 | x6 || x2 | x8 | x2 [C,G,]4 x2 | C4 C4 | C4 x4 | x8 | %23
w: ~||~|||||||~|~ ~|~||
 x8 | D4 x4 | B,6 x2 | x8 | x2 C6 | x8 | [F,C]6 x2 | x8 | x8 | x8 | x6 |] %34
w: |~|why|||||||||

